Adwaita++-Light/panel/24/synapse-panel.svg

<svg height="24" width="24" xmlns="http://www.w3.org/2000/svg">
  <path d="m10 3v2 .1894531a6.5 6.5 0 0 0 -4.8203125 4.8105469h2.0859375a4.5 4.5 0 0 1 4.234375-3 4.5 4.5 0 0 1 4.232422 3h2.076172a6.5 6.5 0 0 0 -4.808594-4.8105469v-1.1894531-1zm1.5 5a3.5 3.5 0 0 0 -3.5 3.5 3.5 3.5 0 0 0 .0410156.5h.359375.6542969 4.8945315a2.5 2.5 0 0 1 -2.449219 2 2.5 2.5 0 0 1 -1.9980469-1h-1.1601562a3.5 3.5 0 0 0 3.1582031 2 3.5 3.5 0 0 0 3.5-3.5 3.5 3.5 0 0 0 -.041016-.5h-.558593-.455079-4.8945308a2.5 2.5 0 0 1 2.4492188-2 2.5 2.5 0 0 1 1.998047 1h1.160156a3.5 3.5 0 0 0 -3.158203-2zm-6.3164062 5a6.5 6.5 0 0 0 4.8164062 4.814453v1.185547 1h3v-1-1.191406a6.5 6.5 0 0 0 4.816406-4.808594h-2.080078a4.5 4.5 0 0 1 -4.236328 3 4.5 4.5 0 0 1 -4.2363281-3z" fill="#444"/>
</svg>

<svg xmlns="http://www.w3.org/2000/svg" width="24" height="24" version="1.1">
 <defs>
  <style id="current-color-scheme" type="text/css">
   .ColorScheme-Text { color:#444444; } .ColorScheme-Highlight { color:#4285f4; }
  </style>
 </defs>
 <path style="fill:currentColor" class="ColorScheme-Text" d="M 10 3 L 10 5 L 10 5.1894531 A 6.5 6.5 0 0 0 5.1796875 10 L 7.265625 10 A 4.5 4.5 0 0 1 11.5 7 A 4.5 4.5 0 0 1 15.732422 10 L 17.808594 10 A 6.5 6.5 0 0 0 13 5.1894531 L 13 4 L 13 3 L 10 3 z M 11.5 8 A 3.5 3.5 0 0 0 8 11.5 A 3.5 3.5 0 0 0 8.0410156 12 L 8.4003906 12 L 9.0546875 12 L 13.949219 12 A 2.5 2.5 0 0 1 11.5 14 A 2.5 2.5 0 0 1 9.5019531 13 L 8.3417969 13 A 3.5 3.5 0 0 0 11.5 15 A 3.5 3.5 0 0 0 15 11.5 A 3.5 3.5 0 0 0 14.958984 11 L 14.400391 11 L 13.945312 11 L 9.0507812 11 A 2.5 2.5 0 0 1 11.5 9 A 2.5 2.5 0 0 1 13.498047 10 L 14.658203 10 A 3.5 3.5 0 0 0 11.5 8 z M 5.1835938 13 A 6.5 6.5 0 0 0 10 17.814453 L 10 19 L 10 20 L 13 20 L 13 19 L 13 17.808594 A 6.5 6.5 0 0 0 17.816406 13 L 15.736328 13 A 4.5 4.5 0 0 1 11.5 16 A 4.5 4.5 0 0 1 7.2636719 13 L 5.1835938 13 z"/>
</svg>
